src/icons/svgs/16/eye-slash.svg

<svg width="16" height="16" viewBox="0 0 16 16" fill="none" xmlns="http://www.w3.org/2000/svg">
<g clip-path="url(#clip0)">
<path d="M8.12697 10.2592L5.64447 8.43341C5.85204 9.47778 6.82596 10.2702 7.99996 10.2702C8.04447 10.2709 8.08447 10.2615 8.12697 10.2592ZM7.99946 11.3959C6.01197 11.3959 4.39947 9.88372 4.39947 8.042C4.39947 7.88288 4.42672 7.73075 4.42697 7.57747L2.03147 5.78028C1.58722 6.33692 1.19972 6.95309 0.886215 7.62223C0.838465 7.72559 0.776965 7.90372 0.776965 8.02091C0.776965 8.13755 0.81604 8.31622 0.86369 8.42005C2.21994 11.3122 4.90369 13.2505 7.97619 13.2505C9.11269 13.2505 10.1954 12.9812 11.1787 12.4972L9.31619 11.1285C8.90197 11.3045 8.45197 11.3959 7.99946 11.3959ZM15.7695 13.0154L13.182 11.1144C13.9662 10.3654 14.6262 9.45622 15.1122 8.4402C15.1599 8.33637 15.1989 8.15731 15.1989 8.04106C15.1989 7.92444 15.1599 7.74575 15.1122 7.64192C13.756 4.74973 11.0722 2.81145 7.99972 2.81145C6.43247 2.81145 4.96972 3.32567 3.72972 4.2088L0.969715 2.14081C0.859715 2.06026 0.729215 2.0209 0.600215 2.0209C0.422215 2.0209 0.24544 2.09492 0.12749 2.23627C-0.0771847 2.48096 -0.0317596 2.83463 0.22919 3.02612L15.0067 13.88C15.2692 14.0723 15.6459 14.0285 15.8489 13.7846C16.077 13.5615 16.0295 13.2076 15.7695 13.0154ZM11.577 8.02091C11.577 8.60333 11.4093 9.14544 11.1282 9.62098L10.1645 8.91247C10.2955 8.63872 10.3768 8.34012 10.3768 8.01997C10.3768 6.79887 9.30184 5.76997 7.99934 5.76997C7.94182 5.77067 7.85997 5.78037 7.78782 5.78792C7.91947 6.00528 7.97697 6.25372 7.97697 6.52091C7.97697 6.75926 7.91294 6.98192 7.80644 7.1809L5.58947 5.53419C6.22597 4.98622 7.06746 4.6452 7.99996 4.6452C9.98697 4.6459 11.577 6.15997 11.577 8.02091Z" fill="black"/>
</g>
<defs>
<clipPath id="clip0">
<rect width="16" height="16" fill="white"/>
</clipPath>
</defs>
</svg>

<svg width="16" height="16" viewBox="0 0 16 16" xmlns="http://www.w3.org/2000/svg">
    <g clip-path="url(#a)">
        <path d="M8.127 10.26 5.644 8.432C5.852 9.478 6.826 10.27 8 10.27c.044 0 .084-.008.127-.01zm-.128 1.136c-1.987 0-3.6-1.512-3.6-3.354 0-.16.028-.311.028-.465L2.031 5.78A9.232 9.232 0 0 0 .886 7.622a1.156 1.156 0 0 0-.109.399c0 .117.039.295.087.399 1.356 2.892 4.04 4.83 7.112 4.83a7.22 7.22 0 0 0 3.203-.753L9.316 11.13A3.375 3.375 0 0 1 8 11.396zm7.77 1.62-2.587-1.902a9.182 9.182 0 0 0 1.93-2.674c.048-.104.087-.283.087-.399 0-.117-.04-.295-.087-.4-1.356-2.891-4.04-4.83-7.112-4.83-1.568 0-3.03.515-4.27 1.398L.97 2.14a.625.625 0 0 0-.37-.12.615.615 0 0 0-.473.215.539.539 0 0 0 .102.79L15.007 13.88a.628.628 0 0 0 .842-.095c.228-.223.18-.577-.08-.77zM11.578 8.02a3.13 3.13 0 0 1-.449 1.6l-.963-.709c.13-.273.212-.572.212-.892 0-1.221-1.075-2.25-2.378-2.25-.057 0-.139.01-.211.018.131.217.189.466.189.733 0 .238-.064.46-.17.66l-2.22-1.646A3.682 3.682 0 0 1 8 4.645c1.987 0 3.577 1.515 3.577 3.376z"/>
    </g>
    <defs>
        <clipPath id="a">
            <path fill="#fff" d="M0 0h16v16H0z"/>
        </clipPath>
    </defs>
</svg>
